kora/actions/scalable/kt-speed-limits.svg

<svg xmlns="http://www.w3.org/2000/svg" width="16" height="16" version="1.1">
 <defs>
  <style id="current-color-scheme" type="text/css">
   .ColorScheme-Text { color:#dfdfdf; } .ColorScheme-Highlight { color:#4285f4; }
  </style>
 </defs>
 <path style="fill:currentColor" class="ColorScheme-Text" d="M 0.51758,8.1368 C 0.46788,8.1224 0.41382,8.1289 0.36914,8.1563 0.32446,8.1838 0.29281,8.23 0.2793,8.2833 0.09448,9.014 0,9.7707 0,10.533 0,10.664 0.00373,10.795 0.00977,10.934 0.0146,11.045 0.09996,11.133 0.20312,11.133 0.20616,11.133 0.20986,11.133 0.21289,11.133 L 2.5391,11.018 C 2.5905,11.015 2.6392,10.99 2.6738,10.949 2.7085,10.908 2.727,10.854 2.7246,10.799 2.7206,10.705 2.7187,10.618 2.7187,10.533 2.7187,10.028 2.7804,9.5288 2.9023,9.047 2.9303,8.936 2.8691,8.8212 2.7656,8.7911 Z M 4.6133,8.0704 C 4.571,8.0757 4.5304,8.0958 4.498,8.129 4.4333,8.1955 4.4187,8.3002 4.4609,8.3849 L 6.0469,11.572 A 2,2 0 0 0 6,12 2,2 0 0 0 8,14 2,2 0 0 0 10,12 2,2 0 0 0 8,10 2,2 0 0 0 7.7695,10.016 L 4.7383,8.0997 C 4.6997,8.0753 4.6555,8.0652 4.6133,8.0704 Z M 15.393,7.8302 13.168,8.5763 C 13.066,8.6106 13.009,8.7283 13.041,8.838 13.201,9.3841 13.281,9.9544 13.281,10.533 13.281,10.618 13.279,10.705 13.275,10.799 13.273,10.854 13.291,10.908 13.326,10.949 13.361,10.99 13.41,11.015 13.461,11.018 L 15.789,11.133 C 15.792,11.133 15.794,11.133 15.797,11.133 15.9,11.133 15.985,11.045 15.99,10.934 15.996,10.795 16,10.664 16,10.533 16,9.6585 15.877,8.7952 15.635,7.9669 15.603,7.8572 15.495,7.7957 15.393,7.8302 Z M 2.8613,4.0392 C 2.8097,4.0356 2.7594,4.0535 2.7207,4.0899 2.0138,4.756 1.4269,5.5408 0.97656,6.4239 0.95188,6.4724 0.94645,6.5311 0.96094,6.5841 0.97542,6.6371 1.0075,6.6807 1.0527,6.7071 L 3.0977,7.9063 C 3.1272,7.9237 3.1599,7.9317 3.1914,7.9317 3.2601,7.9317 3.3261,7.8915 3.3613,7.8224 3.659,7.2386 4.048,6.72 4.5156,6.2794 4.5544,6.243 4.5768,6.1919 4.5801,6.1368 4.5834,6.0817 4.5672,6.0259 4.5332,5.9845 L 2.9941,4.1095 C 2.9602,4.068 2.9128,4.0427 2.8613,4.0392 Z M 12.902,3.8321 C 12.851,3.8378 12.804,3.8655 12.771,3.9083 L 11.301,5.8458 C 11.268,5.8887 11.254,5.9432 11.26,5.9981 11.265,6.0531 11.29,6.1039 11.33,6.1388 11.813,6.5597 12.218,7.0613 12.537,7.6329 12.574,7.6981 12.639,7.7345 12.705,7.7345 12.739,7.7345 12.773,7.7252 12.805,7.7052 L 14.805,6.4239 C 14.849,6.3956 14.88,6.3505 14.893,6.297 14.905,6.2434 14.898,6.1862 14.871,6.1388 14.389,5.2746 13.775,4.5134 13.045,3.8771 13.005,3.8422 12.954,3.8266 12.902,3.8321 Z M 6.916,2.0353 C 5.9825,2.171 5.0878,2.4802 4.2559,2.9532 4.1611,3.0071 4.1256,3.1329 4.1758,3.2345 L 5.2676,5.4415 C 5.3025,5.512 5.3699,5.5509 5.4395,5.5509 5.4701,5.5509 5.5003,5.5439 5.5293,5.5274 6.0773,5.2159 6.6665,5.0133 7.2812,4.9239 7.3875,4.9085 7.4617,4.8035 7.4473,4.6896 L 7.1348,2.213 C 7.1204,2.0991 7.022,2.0199 6.916,2.0353 Z M 8.7793,1.9981 C 8.7277,1.9926 8.6765,2.008 8.6367,2.0431 8.597,2.0782 8.5733,2.1287 8.5684,2.1837 L 8.3418,4.67 C 8.3314,4.7844 8.4108,4.8875 8.5176,4.8985 9.1359,4.9627 9.7312,5.1415 10.289,5.4298 10.316,5.4435 10.346,5.4493 10.375,5.4493 10.397,5.4493 10.417,5.4454 10.438,5.4376 10.486,5.4194 10.526,5.3819 10.549,5.3321 L 11.561,3.0821 C 11.607,2.9786 11.567,2.8547 11.471,2.8048 10.623,2.367 9.7173,2.0956 8.7793,1.9981 Z"/>
</svg>

<svg xmlns="http://www.w3.org/2000/svg" style="fill-rule:evenodd;clip-rule:evenodd;stroke-linejoin:round;stroke-miterlimit:2" width="100%" height="100%" version="1.1" viewBox="0 0 16 16" xml:space="preserve">
 <defs>
  <style id="current-color-scheme" type="text/css">
   .ColorScheme-Text { color:#dfdfdf; } .ColorScheme-Highlight { color:#4285f4; } .ColorScheme-NeutralText { color:#ff9800; } .ColorScheme-PositiveText { color:#4caf50; } .ColorScheme-NegativeText { color:#f44336; }
  </style>
 </defs>
 <path style="fill:currentColor;" class="ColorScheme-Text" d="M4.268,7.676c-0.042,0.005 -0.083,0.025 -0.115,0.058c-0.065,0.067 -0.079,0.172 -0.037,0.256l1.931,3.582c-0.031,0.141 -0.047,0.284 -0.047,0.428c0,1.097 0.903,2 2,2c1.097,-0 2,-0.903 2,-2c0,-1.097 -0.903,-2 -2,-2c-0.077,0.001 -0.154,0.006 -0.231,0.016l-3.376,-2.311c-0.038,-0.024 -0.082,-0.034 -0.125,-0.029Z"/>
 <path style="fill:currentColor;fill-opacity:0.3" class="ColorScheme-Text" d="M0.518,8.137c-0.05,-0.015 -0.104,-0.008 -0.149,0.019c-0.045,0.028 -0.076,0.074 -0.09,0.127c-0.185,0.731 -0.279,1.488 -0.279,2.25c0,0.131 0.004,0.262 0.01,0.401c0.005,0.111 0.09,0.199 0.193,0.199l2.336,-0.115c0.052,-0.003 0.1,-0.028 0.135,-0.069c0.035,-0.041 0.053,-0.095 0.051,-0.15c-0.004,-0.094 -0.006,-0.181 -0.006,-0.266c-0,-0.505 0.061,-1.004 0.183,-1.486c0.028,-0.111 -0.033,-0.226 -0.136,-0.256l-2.248,-0.654Zm14.875,-0.307l-2.225,0.746c-0.102,0.035 -0.159,0.152 -0.127,0.262c0.16,0.546 0.24,1.116 0.24,1.695c0,0.085 -0.002,0.172 -0.006,0.266c-0.002,0.055 0.016,0.109 0.051,0.15c0.035,0.041 0.084,0.066 0.135,0.069l2.336,0.115c0.103,-0 0.188,-0.088 0.193,-0.199c0.006,-0.139 0.01,-0.27 0.01,-0.401c0,-0.875 -0.123,-1.738 -0.365,-2.566c-0.032,-0.11 -0.14,-0.171 -0.242,-0.137Zm-12.532,-3.791c-0.051,-0.003 -0.102,0.014 -0.14,0.051c-0.707,0.666 -1.294,1.451 -1.744,2.334c-0.025,0.048 -0.031,0.107 -0.016,0.16c0.014,0.053 0.047,0.097 0.092,0.123l2.045,1.199c0.029,0.018 0.062,0.026 0.093,0.026c0.069,-0 0.135,-0.041 0.17,-0.11c0.298,-0.583 0.687,-1.102 1.155,-1.543c0.038,-0.036 0.061,-0.087 0.064,-0.142c0.003,-0.055 -0.013,-0.111 -0.047,-0.153l-1.539,-1.875c-0.034,-0.041 -0.081,-0.066 -0.133,-0.07Zm10.041,-0.207c-0.051,0.006 -0.098,0.033 -0.131,0.076l-1.47,1.938c-0.033,0.043 -0.047,0.097 -0.041,0.152c0.005,0.055 0.03,0.106 0.07,0.141c0.483,0.421 0.888,0.922 1.207,1.494c0.037,0.065 0.102,0.101 0.168,0.101c0.034,0 0.068,-0.009 0.1,-0.029l2,-1.281c0.044,-0.028 0.075,-0.074 0.088,-0.127c0.012,-0.054 0.005,-0.111 -0.022,-0.158c-0.482,-0.864 -1.096,-1.626 -1.826,-2.262c-0.04,-0.035 -0.091,-0.05 -0.143,-0.045Zm-5.986,-1.797c-0.933,0.136 -1.828,0.445 -2.66,0.918c-0.095,0.054 -0.13,0.18 -0.08,0.281l1.092,2.207c0.035,0.071 0.102,0.11 0.172,0.11c0.03,-0 0.06,-0.007 0.089,-0.024c0.548,-0.311 1.138,-0.514 1.752,-0.603c0.107,-0.016 0.181,-0.121 0.166,-0.234l-0.312,-2.477c-0.015,-0.114 -0.113,-0.193 -0.219,-0.178Zm1.863,-0.037c-0.051,-0.005 -0.102,0.01 -0.142,0.045c-0.04,0.035 -0.064,0.086 -0.069,0.141l-0.226,2.486c-0.011,0.114 0.069,0.217 0.176,0.228c0.618,0.065 1.213,0.243 1.771,0.532c0.027,0.013 0.057,0.019 0.086,0.019c0.022,0 0.042,-0.004 0.063,-0.011c0.048,-0.019 0.088,-0.056 0.111,-0.106l1.012,-2.25c0.046,-0.103 0.006,-0.227 -0.09,-0.277c-0.848,-0.438 -1.754,-0.709 -2.692,-0.807Z"/>
</svg>
